X:1
T:Title
%%score { ( 1 3 ) | ( 2 4 ) }
L:1/8
Q:1/4=116
M:3/4
K:C
V:1 treble nm="Grand Piano"
V:3 treble 
V:2 bass 
V:4 bass 
V:1
 [CE]2 [DF]2 [_E^F]2 | [EG]2 [EA]2 E2 | G4 ^F2 | F6 | F2 G2 A2 | B2 c2 B2 | [EA]4 [CE]2 | [EG]6 | %8
w: Charles~H.~Gabriel * *||||||||
 [CE]2 [DF]2 [_E^F]2 | [EG]2 [EA]2 [DEB]2 | [EAc]4 [EGA]2 | [DGd]4 [C^Fd]2 | %12
w: ||||
 [B,Fd]2 [DFB]2 [B,DG]2 | [CGc]2 [CGc]2 [CGc]2 | [DGB]4 [CDA]2 | [G,G]2- [G,-EG-]2 [G,FG]2 | %16
w: ||||
 [EG]2 [EA]2 [EB]2 | [Ec]2 [Ed]2 [Ec]2 | F4 B2 | B6 | F2 G2 A2 |[M:7/8] B2 e3 d2 | %22
w: ||||||
[M:3/4] [Ed]4 [Ec]2 | [EG]6 | [^CEG]2 [CFA]2 [G_B]2 | [FA]4 [FA]2 | [^FA]2 [GB]2 [Ac]2 | %27
w: |||||
 [GB]4 [GB]2 | [Gc]2 [Gc]2 d2 | e2 [Gc]2 A2 | G4 d2 | [Ec]6 |] %32
w: |||||
V:2
 [C,G,]2 [C,G,]2 [C,A,]2 | [C,C]2 [C,C]2 [C,G,C]2 | [E,G,C]4 [_E,A,C]2 | [D,G,B,]6 | %4
 [G,B,D]2 [G,B,D]2 [G,B,F]2 | [G,DF]2 [G,DF]2 [G,DF]2 | [C,C]4 [C,G,]2 | [C,C]6 | %8
 [C,G,]2 [C,G,]2 [C,A,]2 | [C,C]2 [C,C]2 [B,,B,]2 | [A,,A,]4 [C,C]2 | [B,,B,]4 [A,,A,]2 | %12
 G,,2 G,2 F,2 | E,2 E,2 _E,2 | D,4 D,2 | z2 C2 D2 | [C,C]2 [C,C]2 [C,C]2 | %17
 [C,G,]2 [C,G,]2 [C,G,]2 | [D,G,B,]4[K:treble] [G,DF]2 | [G,DF]6 | [G,B,D]2 [G,B,D]2 [G,B,F]2 | %21
[M:7/8] [G,DF]2 [G,B,G]3 [G,B,F]2 |[M:3/4][K:bass] [C,C]4 [C,C]2 | [C,C]6 | A,,2 A,,2 [^C,A,]2 | %25
 [D,D]4 [D,D]2 | [D,D]2 [D,D]2 [^F,D]2 | [G,D]4 [F,D]2 | [E,C]2 [E,C]2[K:treble] [G,B,G]2 | %29
 [CG]2[K:bass] [E,C]2 [F,CF]2 | [G,CE]4 [G,F]2 | [C,G,]6 |] %32
V:3
 x6 | x6 | x6 | x6 | x6 | x6 | x6 | x6 | x6 | x6 | x6 | x6 | x6 | x6 | x6 | [B,D]2 z2 z2 | x6 | %17
 x6 | x6 | x6 | x6 |[M:7/8] x7 |[M:3/4] x6 | x6 | x6 | x6 | x6 | x6 | x6 | x6 | x6 | x6 |] %32
V:4
 x6 | x6 | x6 | x6 | x6 | x6 | x6 | x6 | x6 | x6 | x6 | x6 | x6 | x6 | x6 | G,,6 | x6 | x6 | %18
 x4[K:treble] x2 | x6 | x6 |[M:7/8] x7 |[M:3/4][K:bass] x6 | x6 | x6 | x6 | x6 | x6 | %28
 x4[K:treble] x2 | x2[K:bass] x4 | x6 | x6 |] %32

